svg/24/headphones.svg

<svg width="24" height="24" viewBox="0 0 24 24" fill="currentColor" xmlns="http://www.w3.org/2000/svg"><path d="M12 3.5C7.30558 3.5 3.5 7.30558 3.5 12V17.25C3.5 17.6642 3.16421 18 2.75 18C2.33579 18 2 17.6642 2 17.25V12C2 6.47715 6.47715 2 12 2C17.5228 2 22 6.47715 22 12V17.25C22 17.6642 21.6642 18 21.25 18C20.8358 18 20.5 17.6642 20.5 17.25V12C20.5 7.30558 16.6944 3.5 12 3.5Z"/><path fill-rule="evenodd" clip-rule="evenodd" d="M7 13C5.89543 13 5 13.8954 5 15V20C5 21.1046 5.89543 22 7 22H8C9.10457 22 10 21.1046 10 20V15C10 13.8954 9.10457 13 8 13H7ZM8 14.5H7C6.72386 14.5 6.5 14.7239 6.5 15V20C6.5 20.2761 6.72386 20.5 7 20.5H8C8.27614 20.5 8.5 20.2761 8.5 20V15C8.5 14.7239 8.27614 14.5 8 14.5Z"/><path fill-rule="evenodd" clip-rule="evenodd" d="M14 15C14 13.8954 14.8954 13 16 13H17C18.1046 13 19 13.8954 19 15V20C19 21.1046 18.1046 22 17 22H16C14.8954 22 14 21.1046 14 20V15ZM16 14.5H17C17.2761 14.5 17.5 14.7239 17.5 15V20C17.5 20.2761 17.2761 20.5 17 20.5H16C15.7239 20.5 15.5 20.2761 15.5 20V15C15.5 14.7239 15.7239 14.5 16 14.5Z"/></svg>

<svg xmlns="http://www.w3.org/2000/svg" width="24" height="24" fill="currentColor" viewBox="0 0 24 24">
  <path d="M12 3.5A8.5 8.5 0 0 0 3.5 12v5.25a.75.75 0 0 1-1.5 0V12C2 6.477 6.477 2 12 2s10 4.477 10 10v5.25a.75.75 0 0 1-1.5 0V12A8.5 8.5 0 0 0 12 3.5Z"/>
  <path fill-rule="evenodd" d="M7 13a2 2 0 0 0-2 2v5a2 2 0 0 0 2 2h1a2 2 0 0 0 2-2v-5a2 2 0 0 0-2-2H7Zm1 1.5H7a.5.5 0 0 0-.5.5v5a.5.5 0 0 0 .5.5h1a.5.5 0 0 0 .5-.5v-5a.5.5 0 0 0-.5-.5Zm6 .5a2 2 0 0 1 2-2h1a2 2 0 0 1 2 2v5a2 2 0 0 1-2 2h-1a2 2 0 0 1-2-2v-5Zm2-.5h1a.5.5 0 0 1 .5.5v5a.5.5 0 0 1-.5.5h-1a.5.5 0 0 1-.5-.5v-5a.5.5 0 0 1 .5-.5Z" clip-rule="evenodd"/>
</svg>
